X: 14109
T: Friendly Visit, The
R: hornpipe
M: 4/4
K: Gmajor
D/E/F|:G2 DG BGBd|c2 AB cdef|gd B/c/d ecAG|E/F/G AB cAFA|
G2 DG BGBd|c2 AB cdef|gdBG FAdc|1 B2 GF G2 D/E/F:|2 B2 GF G2B/c/d||
g2 dB GBdg|e2 cA E3g|f2 ed B/c/deg|f/g/f e/f/e dcBA|
G2 DG BGBd|c2 AB cdef|gdBG FAdc|1 B2 GF G2B/c/d:|2 B2 GF G2||

